icons/1_Primary/KACE.svg

<svg xmlns="http://www.w3.org/2000/svg" width="1024" height="1024" fill="none">
   <g clip-path="url(#a)">
      <path fill="#F8C18C" d="M512 1024c282.77 0 512-229.23 512-512S794.77 0 512 0 0 229.23 0 512s229.23 512 512 512Z"/>
      <path fill="#fff" d="M512 240c-150.22 0-272 121.78-272 272s121.78 272 272 272 272-121.78 272-272-121.78-272-272-272Zm0 20.66c138.59 0 251.33 112.75 251.33 251.33S650.59 763.34 512 763.34c-138.59 0-251.33-112.75-251.33-251.35S373.41 260.66 512 260.66Zm0 8.45c-133.94 0-242.88 108.96-242.88 242.88 0 133.92 108.95 242.88 242.88 242.88s242.88-108.95 242.88-242.88S645.92 269.11 512 269.11Zm-87.3 78.65c21.39 0 38.8 17.41 38.8 38.81 0 17-11.02 31.46-26.28 36.68v76.16h50.81l78.1-92.85c-3.54-5.85-5.62-12.67-5.62-19.99 0-21.39 17.4-38.81 38.79-38.81s38.79 17.41 38.79 38.81c0 21.4-17.4 38.79-38.79 38.79-4.95 0-9.67-.98-14.03-2.68l-75.07 89.25 75.08 89.36c4.36-1.7 9.07-2.66 14.02-2.66 21.39 0 38.79 17.4 38.79 38.79s-17.4 38.79-38.79 38.79-38.79-17.4-38.79-38.79c0-7.33 2.08-14.17 5.62-20.02l-78.11-92.96h-50.8v76.3c15.26 5.22 26.28 19.68 26.28 36.68 0 21.39-17.4 38.79-38.79 38.79s-38.79-17.4-38.79-38.79c0-17 11.01-31.46 26.28-36.68v-177.5c-15.26-5.22-26.28-19.68-26.28-36.68 0-21.39 17.4-38.81 38.79-38.81l-.01.01Zm0 20.19c-10.26 0-18.62 8.34-18.62 18.62 0 10.28 8.35 18.6 18.62 18.6 10.27 0 18.62-8.35 18.62-18.6 0-10.25-8.35-18.62-18.62-18.62Zm174.6 0c-10.26 0-18.62 8.34-18.62 18.62 0 10.28 8.35 18.6 18.62 18.6 10.27 0 18.62-8.35 18.62-18.6 0-10.25-8.35-18.62-18.62-18.62ZM424.7 618.82c-10.26 0-18.62 8.35-18.62 18.62 0 10.27 8.35 18.62 18.62 18.62 10.27 0 18.62-8.35 18.62-18.62 0-10.27-8.35-18.62-18.62-18.62Zm174.6 0c-10.26 0-18.62 8.35-18.62 18.62 0 10.27 8.35 18.62 18.62 18.62 10.27 0 18.62-8.35 18.62-18.62 0-10.27-8.35-18.62-18.62-18.62Z"/>
   </g>
   <defs>
      <clipPath id="a">
         <path fill="#fff" d="M0 0h1024v1024H0z"/>
      </clipPath>
   </defs>
</svg>

<svg width="1024" height="1024" viewBox="0 0 1024 1024" fill="none" xmlns="http://www.w3.org/2000/svg">
<g clip-path="url(#clip0_2_2574)">
<path d="M512 1024C794.77 1024 1024 794.77 1024 512C1024 229.23 794.77 0 512 0C229.23 0 0 229.23 0 512C0 794.77 229.23 1024 512 1024Z" fill="#F8C18C"/>
<path d="M512 240C361.78 240 240 361.78 240 512C240 662.22 361.78 784 512 784C662.22 784 784 662.22 784 512C784 361.78 662.22 240 512 240ZM512 260.66C650.59 260.66 763.33 373.41 763.33 511.99C763.33 650.57 650.59 763.34 512 763.34C373.41 763.34 260.67 650.59 260.67 511.99C260.67 373.39 373.41 260.66 512 260.66ZM512 269.11C378.06 269.11 269.12 378.07 269.12 511.99C269.12 645.91 378.07 754.87 512 754.87C645.93 754.87 754.88 645.92 754.88 511.99C754.88 378.06 645.92 269.11 512 269.11ZM424.7 347.76C446.09 347.76 463.5 365.17 463.5 386.57C463.5 403.57 452.48 418.03 437.22 423.25V499.41H488.03L566.13 406.56C562.59 400.71 560.51 393.89 560.51 386.57C560.51 365.18 577.91 347.76 599.3 347.76C620.69 347.76 638.09 365.17 638.09 386.57C638.09 407.97 620.69 425.36 599.3 425.36C594.35 425.36 589.63 424.38 585.27 422.68L510.2 511.93L585.28 601.29C589.64 599.59 594.35 598.63 599.3 598.63C620.69 598.63 638.09 616.03 638.09 637.42C638.09 658.81 620.69 676.21 599.3 676.21C577.91 676.21 560.51 658.81 560.51 637.42C560.51 630.09 562.59 623.25 566.13 617.4L488.02 524.44H437.22V600.74C452.48 605.96 463.5 620.42 463.5 637.42C463.5 658.81 446.1 676.21 424.71 676.21C403.32 676.21 385.92 658.81 385.92 637.42C385.92 620.42 396.93 605.96 412.2 600.74V423.24C396.94 418.02 385.92 403.56 385.92 386.56C385.92 365.17 403.32 347.75 424.71 347.75L424.7 347.76ZM424.7 367.95C414.44 367.95 406.08 376.29 406.08 386.57C406.08 396.85 414.43 405.17 424.7 405.17C434.97 405.17 443.32 396.82 443.32 386.57C443.32 376.32 434.97 367.95 424.7 367.95ZM599.3 367.95C589.04 367.95 580.68 376.29 580.68 386.57C580.68 396.85 589.03 405.17 599.3 405.17C609.57 405.17 617.92 396.82 617.92 386.57C617.92 376.32 609.57 367.95 599.3 367.95ZM424.7 618.82C414.44 618.82 406.08 627.17 406.08 637.44C406.08 647.71 414.43 656.06 424.7 656.06C434.97 656.06 443.32 647.71 443.32 637.44C443.32 627.17 434.97 618.82 424.7 618.82ZM599.3 618.82C589.04 618.82 580.68 627.17 580.68 637.44C580.68 647.71 589.03 656.06 599.3 656.06C609.57 656.06 617.92 647.71 617.92 637.44C617.92 627.17 609.57 618.82 599.3 618.82Z" fill="white"/>
</g>
<defs>
<clipPath id="clip0_2_2574">
<rect width="1024" height="1024" fill="white"/>
</clipPath>
</defs>
</svg>
